Papirus/64x64/apps/firewall-config.svg

<?xml version="1.0" encoding="UTF-8" standalone="no"?>
<svg xmlns="http://www.w3.org/2000/svg" height="64" width="64" version="1">
 <polygon points="664 430.5 588 333 517.5 214 500 192 386 355 328 328 304 332.5 299.5 366 318.5 403.5 338 431 309.5 462 275.5 507 300 533 304 551 318.5 569.5 340.5 583 351.5 604.5 373.5 617 395 637.5 452.5 723 488.5 788.5 502 812.5 551.5 721.5 612.5 637 628.5 616 668 619.5 707 615 713 603 688.5 578 676.5 569.5 693.5 560.5 693.5 540 732.5 497.5" transform="matrix(0.063142,0,0,0.063142,-131,7.9705)" display="none" style="display:none;fill:#5a0e00"/>
 <path d="M 10.75,4 C 7.0392886,4 4,7.141106 4,10.800781 l 0,8.398437 C 4,21.07737 4.8167584,22.800262 6.0976562,24.050782 4.8098566,25.326636 4,27.083724 4,29 l 0,8 c 0,1.916276 0.8098566,3.673364 2.0976562,4.949218 C 4.8167584,43.199738 4,44.92263 4,46.800782 l 0,8.398436 C 4,58.858894 7.0392872,62 10.75,62 l 16.5,0 C 29.098408,62 30.777464,61.21904 32,59.984376 33.222536,61.21904 34.901592,62 36.75,62 l 16.5,0 C 56.960712,62 60,58.858894 60,55.199218 l 0,-8.398436 C 60,44.92263 59.183242,43.199738 57.902344,41.949218 59.190144,40.673364 60,38.916276 60,37 l 0,-8 C 60,27.083724 59.190144,25.326636 57.902344,24.050782 59.183242,22.800262 60,21.07737 60,19.199218 l 0,-8.398437 C 60,7.141106 56.960712,4 53.25,4 L 36.75,4 C 34.901592,4 33.222536,4.78096 32,6.015625 30.777464,4.78096 29.098408,4 27.25,4 Z" style="opacity:0.2;fill:#000000;fill-opacity:1;"/>
 <path style="opacity:1;fill:#5d5d5d;fill-opacity:1;" d="M 10.75,3 C 7.0392886,3 4,6.141106 4,9.8007812 L 4,18.199219 C 4,20.07737 4.8167584,21.800262 6.0976562,23.050782 4.8098566,24.326636 4,26.083724 4,28 l 0,8 c 0,1.916276 0.8098566,3.673364 2.0976562,4.949218 C 4.8167584,42.199738 4,43.92263 4,45.800782 l 0,8.398436 C 4,57.858894 7.0392872,61 10.75,61 l 16.5,0 C 29.098408,61 30.777464,60.21904 32,58.984376 33.222536,60.21904 34.901592,61 36.75,61 l 16.5,0 C 56.960712,61 60,57.858894 60,54.199218 l 0,-8.398436 C 60,43.92263 59.183242,42.199738 57.902344,40.949218 59.190144,39.673364 60,37.916276 60,36 l 0,-8 C 60,26.083724 59.190144,24.326636 57.902344,23.050782 59.183242,21.800262 60,20.07737 60,18.199219 L 60,9.8007812 C 60,6.141106 56.960712,3 53.25,3 L 36.75,3 C 34.901592,3 33.222536,3.78096 32,5.015625 30.777464,3.78096 29.098408,3 27.25,3 Z"/>
 <path d="M 10.75,8 C 9.2265,8 8,9.249581 8,10.800781 l 0,8.398438 C 8,20.750418 9.2265,22 10.75,22 l 16.5,0 C 28.773502,22 30,20.750418 30,19.199219 l 0,-8.398438 C 30,9.249581 28.773502,8 27.25,8 l -16.5,0 z m 26,0 C 35.226498,8 34,9.249581 34,10.800781 l 0,8.398438 C 34,20.750418 35.226498,22 36.75,22 l 16.5,0 C 54.7735,22 56,20.750418 56,19.199219 l 0,-8.398438 C 56,9.249581 54.7735,8 53.25,8 L 36.75,8 Z M 11,26 c -1.662,0 -3,1.338 -3,3 l 0,8 c 0,1.662 1.338,3 3,3 l 4,0 c 1.662,0 3,-1.338 3,-3 l 0,-8 c 0,-1.662 -1.338,-3 -3,-3 l -4,0 z m 13.5,0 C 23.114998,26 22,27.249582 22,28.800782 l 0,8.398436 C 22,38.750418 23.114998,40 24.5,40 l 15,0 c 1.385,0 2.5,-1.249582 2.5,-2.800782 l 0,-8.398436 C 42,27.249582 40.885,26 39.5,26 l -15,0 z M 49,26 c -1.662,0 -3,1.338 -3,3 l 0,8 c 0,1.662 1.338,3 3,3 l 4,0 c 1.662,0 3,-1.338 3,-3 l 0,-8 c 0,-1.662 -1.338,-3 -3,-3 l -4,0 z M 10.75,44 C 9.2265,44 8,45.249582 8,46.800782 l 0,8.398436 C 8,56.750418 9.2265,58 10.75,58 l 16.5,0 C 28.773502,58 30,56.750418 30,55.199218 l 0,-8.398436 C 30,45.249582 28.773502,44 27.25,44 l -16.5,0 z m 26,0 C 35.226498,44 34,45.249582 34,46.800782 l 0,8.398436 C 34,56.750418 35.226498,58 36.75,58 l 16.5,0 C 54.7735,58 56,56.750418 56,55.199218 l 0,-8.398436 C 56,45.249582 54.7735,44 53.25,44 l -16.5,0 z" style="opacity:0.2;fill:#000000;fill-opacity:1"/>
 <path style="fill:#f45c49;fill-opacity:1" d="M 10.75,7 C 9.2265,7 8,8.2495812 8,9.8007812 L 8,18.199219 C 8,19.750418 9.2265,21 10.75,21 l 16.5,0 C 28.773502,21 30,19.750418 30,18.199219 L 30,9.8007812 C 30,8.2495812 28.773502,7 27.25,7 l -16.5,0 z m 26,0 C 35.226498,7 34,8.2495812 34,9.8007812 l 0,8.3984378 C 34,19.750418 35.226498,21 36.75,21 l 16.5,0 C 54.7735,21 56,19.750418 56,18.199219 L 56,9.8007812 C 56,8.2495812 54.7735,7 53.25,7 L 36.75,7 Z M 11,25 c -1.662,0 -3,1.338 -3,3 l 0,8 c 0,1.662 1.338,3 3,3 l 4,0 c 1.662,0 3,-1.338 3,-3 l 0,-8 c 0,-1.662 -1.338,-3 -3,-3 l -4,0 z m 13.5,0 C 23.114998,25 22,26.249582 22,27.800782 l 0,8.398436 C 22,37.750418 23.114998,39 24.5,39 l 15,0 c 1.385,0 2.5,-1.249582 2.5,-2.800782 l 0,-8.398436 C 42,26.249582 40.885,25 39.5,25 l -15,0 z M 49,25 c -1.662,0 -3,1.338 -3,3 l 0,8 c 0,1.662 1.338,3 3,3 l 4,0 c 1.662,0 3,-1.338 3,-3 l 0,-8 c 0,-1.662 -1.338,-3 -3,-3 l -4,0 z M 10.75,43 C 9.2265,43 8,44.249582 8,45.800782 l 0,8.398436 C 8,55.750418 9.2265,57 10.75,57 l 16.5,0 C 28.773502,57 30,55.750418 30,54.199218 l 0,-8.398436 C 30,44.249582 28.773502,43 27.25,43 l -16.5,0 z m 26,0 C 35.226498,43 34,44.249582 34,45.800782 l 0,8.398436 C 34,55.750418 35.226498,57 36.75,57 l 16.5,0 C 54.7735,57 56,55.750418 56,54.199218 l 0,-8.398436 C 56,44.249582 54.7735,43 53.25,43 l -16.5,0 z"/>
 <path style="opacity:0.1;fill:#ffffff;fill-opacity:1;" d="M 10.75 3 C 7.0392886 3 4 6.141106 4 9.8007812 L 4 10.800781 C 4 7.1411062 7.0392886 4 10.75 4 L 27.25 4 C 29.098408 4 30.777464 4.78096 32 6.015625 C 33.222536 4.78096 34.901592 4 36.75 4 L 53.25 4 C 56.960712 4 60 7.1411063 60 10.800781 L 60 9.8007812 C 60 6.141106 56.960712 3 53.25 3 L 36.75 3 C 34.901592 3 33.222536 3.78096 32 5.015625 C 30.777464 3.78096 29.098408 3 27.25 3 L 10.75 3 z M 5.6367188 23.554688 C 4.6206126 24.771438 4 26.324767 4 28 L 4 29 C 4 27.083724 4.8098566 25.326635 6.0976562 24.050781 C 5.9358681 23.89283 5.7829867 23.727072 5.6367188 23.554688 z M 58.363281 23.554688 C 58.217013 23.727072 58.064132 23.89283 57.902344 24.050781 C 59.190144 25.326635 60 27.083724 60 29 L 60 28 C 60 26.324767 59.379388 24.771438 58.363281 23.554688 z M 5.6367188 41.445312 C 4.624964 42.637718 4 44.159856 4 45.800781 L 4 46.800781 C 4 44.922629 4.8167585 43.199739 6.0976562 41.949219 C 5.9356676 41.788733 5.7829223 41.620386 5.6367188 41.445312 z M 58.363281 41.445312 C 58.217078 41.620386 58.064332 41.788733 57.902344 41.949219 C 59.183242 43.199739 60 44.922629 60 46.800781 L 60 45.800781 C 60 44.159856 59.375036 42.637718 58.363281 41.445312 z"/>
</svg>

<?xml version="1.0" encoding="UTF-8" standalone="no"?>
<svg xmlns="http://www.w3.org/2000/svg" height="64" width="64" version="1">
 <path style="opacity:.2;fill:#000000" d="m10.75 4c-3.7107 0-6.75 3.1411-6.75 6.801v8.3984c0 1.878.8168 3.601 2.0977 4.852-1.2878 1.276-2.0977 3.033-2.0977 4.949v8c0 1.9163.80986 3.6734 2.0977 4.9492-1.2809 1.251-2.0977 2.974-2.0977 4.852v8.3984c0 3.66 3.0393 6.801 6.75 6.801h16.5c1.848 0 3.527-.781 4.75-2.016 1.223 1.235 2.902 2.016 4.75 2.016h16.5c3.711 0 6.75-3.141 6.75-6.801v-8.3984c0-1.878-.817-3.601-2.098-4.852 1.288-1.276 2.098-3.033 2.098-4.949v-8c0-1.916-.810-3.673-2.098-4.949 1.281-1.251 2.098-2.974 2.098-4.852v-8.3984c0-3.6599-3.039-6.801-6.75-6.801h-16.5c-1.848 0-3.527.7810-4.75 2.0156-1.223-1.2346-2.902-2.0156-4.75-2.0156z"/>
 <path style="fill:#5d5d5d" d="m10.75 3c-3.7107 0-6.75 3.1411-6.75 6.8008v8.3982c0 1.878.8168 3.601 2.0977 4.852-1.2878 1.276-2.0977 3.033-2.0977 4.949v8c0 1.9163.80986 3.6734 2.0977 4.9492-1.2809 1.251-2.0977 2.974-2.0977 4.852v8.3984c0 3.66 3.0393 6.801 6.75 6.801h16.5c1.848 0 3.527-.781 4.75-2.016 1.223 1.235 2.902 2.016 4.75 2.016h16.5c3.711 0 6.75-3.141 6.75-6.801v-8.3984c0-1.878-.817-3.601-2.098-4.852 1.288-1.276 2.098-3.033 2.098-4.949v-8c0-1.916-.810-3.673-2.098-4.949 1.281-1.251 2.098-2.974 2.098-4.852v-8.3982c0-3.6597-3.039-6.8008-6.75-6.8008h-16.5c-1.848 0-3.527.7810-4.75 2.0156-1.223-1.2346-2.902-2.0156-4.75-2.0156z"/>
 <path style="opacity:.2;fill:#000000" d="m10.75 8c-1.5235 0-2.75 1.2496-2.75 2.801v8.3984c0 1.551 1.2265 2.801 2.75 2.801h16.5c1.524 0 2.75-1.25 2.75-2.801v-8.3984c0-1.5514-1.226-2.801-2.75-2.801h-16.5zm26 0c-1.524 0-2.75 1.2496-2.75 2.801v8.3984c0 1.551 1.226 2.801 2.75 2.801h16.5c1.524 0 2.75-1.25 2.75-2.801v-8.3984c0-1.5514-1.226-2.801-2.75-2.801h-16.5zm-25.75 18c-1.662 0-3 1.338-3 3v8c0 1.662 1.338 3 3 3h4c1.662 0 3-1.338 3-3v-8c0-1.662-1.338-3-3-3h-4zm13.5 0c-1.385 0-2.5 1.25-2.5 2.801v8.3984c0 1.551 1.115 2.801 2.5 2.801h15c1.385 0 2.5-1.2496 2.5-2.8008v-8.3984c0-1.551-1.115-2.801-2.5-2.801h-15zm24.5 0c-1.662 0-3 1.338-3 3v8c0 1.662 1.338 3 3 3h4c1.662 0 3-1.338 3-3v-8c0-1.662-1.338-3-3-3h-4zm-38.25 18c-1.5235 0-2.75 1.25-2.75 2.801v8.3984c0 1.551 1.2265 2.801 2.75 2.801h16.5c1.524 0 2.75-1.25 2.75-2.801v-8.3984c0-1.551-1.226-2.801-2.75-2.801h-16.5zm26 0c-1.524 0-2.75 1.25-2.75 2.801v8.3984c0 1.551 1.226 2.801 2.75 2.801h16.5c1.524 0 2.75-1.25 2.75-2.801v-8.3984c0-1.551-1.226-2.801-2.75-2.801h-16.5z"/>
 <path style="fill:#f45c49" d="m10.75 7c-1.5235 0-2.75 1.2496-2.75 2.8008v8.3982c0 1.551 1.2265 2.801 2.75 2.801h16.5c1.524 0 2.75-1.25 2.75-2.801v-8.3982c0-1.5512-1.226-2.8008-2.75-2.8008h-16.5zm26 0c-1.524 0-2.75 1.2496-2.75 2.8008v8.3984c0 1.551 1.226 2.801 2.75 2.801h16.5c1.524 0 2.75-1.25 2.75-2.801v-8.3982c0-1.5512-1.226-2.8008-2.75-2.8008h-16.5zm-25.75 18c-1.662 0-3 1.338-3 3v8c0 1.662 1.338 3 3 3h4c1.662 0 3-1.338 3-3v-8c0-1.662-1.338-3-3-3h-4zm13.5 0c-1.385 0-2.5 1.25-2.5 2.801v8.3984c0 1.551 1.115 2.801 2.5 2.801h15c1.385 0 2.5-1.2496 2.5-2.8008v-8.3984c0-1.551-1.115-2.801-2.5-2.801h-15zm24.5 0c-1.662 0-3 1.338-3 3v8c0 1.662 1.338 3 3 3h4c1.662 0 3-1.338 3-3v-8c0-1.662-1.338-3-3-3h-4zm-38.25 18c-1.5235 0-2.75 1.25-2.75 2.801v8.3984c0 1.551 1.2265 2.801 2.75 2.801h16.5c1.524 0 2.75-1.25 2.75-2.801v-8.3984c0-1.551-1.226-2.801-2.75-2.801h-16.5zm26 0c-1.524 0-2.75 1.25-2.75 2.801v8.3984c0 1.551 1.226 2.801 2.75 2.801h16.5c1.524 0 2.75-1.25 2.75-2.801v-8.3984c0-1.551-1.226-2.801-2.75-2.801h-16.5z"/>
 <path style="opacity:.1;fill:#ffffff" d="m10.75 3c-3.7107 0-6.75 3.1411-6.75 6.8008v1.0002c0-3.6599 3.0393-6.801 6.75-6.801h16.5c1.848 0 3.527.7810 4.75 2.0156 1.223-1.2346 2.902-2.0156 4.75-2.0156h16.5c3.711 0 6.75 3.1411 6.75 6.801v-1.0002c0-3.6597-3.039-6.8008-6.75-6.8008h-16.5c-1.848 0-3.527.7810-4.75 2.0156-1.223-1.2346-2.902-2.0156-4.75-2.0156h-16.5zm-5.1133 20.555c-1.0161 1.216-1.6367 2.77-1.6367 4.445v1c0-1.916.8099-3.673 2.0977-4.949-.1618-.158-.3147-.324-.4610-.496zm52.726 0c-.146.172-.299.338-.461.496 1.288 1.276 2.098 3.033 2.098 4.949v-1c0-1.675-.621-3.229-1.637-4.445zm-52.726 17.89c-1.0117 1.193-1.6367 2.715-1.6367 4.356v1c0-1.878.8168-3.601 2.0977-4.852-.1620-.160-.3148-.329-.4610-.504zm52.726 0c-.146.175-.299.344-.461.504 1.281 1.251 2.098 2.974 2.098 4.852v-1c0-1.641-.625-3.163-1.637-4.356z"/>
</svg>
